!!!OTL: Green Grow the Rashes
!!!id: HA008
**kern
*clefF4
*k[f#c#]
*D:
*M2/2
{8a
=1
8.f#
16f#
8.a
16g
16a
8.f#
8f#}
{8a
=2
16g
8.g
8.dd
16cc#
8dd
8g}
8.r
{16a
=3
8.b
16cc#
8b
8dd
8cc#
8a
8f#}
{8a
=4
8.g
16b
8a
8g
8f#
8d}
4r
=5yy
{4cc#
8.ff#
16e
16f#
8.cc#}
{4cc#
=6
4dd
8.gg
16ff##
8gg
8dd}
{8.dd
16ee
=7
8.ff#
16gg
8ff#
8dd
8cc#
8a
8.f#}
{16a
=8
8.e
16b
8.a
16g
16f#
8.d
8d}
==
*-
!!!minrhy: 16
!!!meter: 2/2
!!!cut: Green Grow the Rashes
!!!key: HA008  16  d 2/2
!!!bem: keine Vorschlge, Bindungen
!!!fog: a--b--c--d--e--f--g--h--
!! Haydn: Volksliedbearbeitungen, Bd1
